assets/icons/stove.svg

<?xml version="1.0" encoding="UTF-8"?>
<svg width="50px" height="50px" viewBox="0 0 50 50" version="1.1" xmlns="http://www.w3.org/2000/svg" xmlns:xlink="http://www.w3.org/1999/xlink">
    <!-- Generator: Sketch 59.1 (86144) - https://sketch.com -->
    <title>stove</title>
    <desc>Created with Sketch.</desc>
    <g id="Page-1" stroke="none" stroke-width="1" fill="none" fill-rule="evenodd">
        <g id="quote_form" transform="translate(-815.000000, -51.000000)" fill="#C6C4C4" fill-rule="nonzero">
            <g id="timeline" transform="translate(215.000000, 50.000000)">
                <g id="stove" transform="translate(600.000000, 1.000000)">
                    <path d="M44.612503,0 L5.38749697,0 C2.41661074,0 -2.84217094e-14,2.41661074 -2.84217094e-14,5.38711543 L-2.84217094e-14,44.612503 C-2.84217094e-14,47.5833893 2.41661074,50 5.38749697,50 L44.612503,50 C47.5833893,50 50,47.5833893 50,44.612503 L50,5.38711543 C50,2.41661074 47.5833893,0 44.612503,0 Z M5.38749697,2.9296875 L44.612503,2.9296875 C45.967865,2.9296875 47.0703125,4.03213496 47.0703125,5.38711543 L47.0703125,12.5518799 L2.9296875,12.5518799 L2.9296875,5.38711543 C2.9296875,4.03213496 4.03213496,2.9296875 5.38749697,2.9296875 Z M44.612503,47.0703125 L5.38749697,47.0703125 C4.03213496,47.0703125 2.9296875,45.967865 2.9296875,44.612503 L2.9296875,15.4815674 L47.0703125,15.4815674 L47.0703125,44.612503 C47.0703125,45.967865 45.967865,47.0703125 44.612503,47.0703125 Z" id="Shape"></path>
                    <path d="M10.8787537,9.20600889 C11.264801,9.20600889 11.6416932,9.04998779 11.9152069,8.77647402 C12.1875763,8.50372314 12.3435975,8.12606816 12.3435975,7.74116514 C12.3435975,7.35549922 12.1875763,6.97746279 11.9152069,6.70509336 C11.6416932,6.43272402 11.264801,6.27632139 10.8787537,6.27632139 C10.4930878,6.27632139 10.1150513,6.43272402 9.84268184,6.70509336 C9.5703125,6.97746279 9.41390996,7.35549922 9.41390996,7.74116514 C9.41390996,8.12683105 9.5703125,8.50372314 9.84268184,8.77647402 C10.1161957,9.04998779 10.4930878,9.20600889 10.8787537,9.20600889 Z" id="Path"></path>
                    <path d="M20.293045,9.20600889 C20.6787109,9.20600889 21.055603,9.04998779 21.3291168,8.77647402 C21.6014862,8.50372314 21.7578888,8.12606816 21.7578888,7.74116514 C21.7578888,7.35549922 21.6014862,6.97746279 21.3291168,6.70509336 C21.055603,6.43272402 20.6787109,6.27632139 20.293045,6.27632139 C19.9073791,6.27632139 19.5293427,6.43272402 19.2569732,6.70509336 C18.9842225,6.97746279 18.8282013,7.35549922 18.8282013,7.74116514 C18.8282013,8.12683105 18.9842225,8.50372314 19.2569732,8.77647402 C19.5301056,9.04998779 19.9073791,9.20600889 20.293045,9.20600889 Z" id="Path"></path>
                    <path d="M29.706955,9.20600889 C30.0926209,9.20600889 30.4698944,9.04998779 30.7430268,8.77647402 C31.0153961,8.50372314 31.1717987,8.12606816 31.1717987,7.74116514 C31.1717987,7.35549922 31.0153961,6.97746279 30.7430268,6.70509336 C30.4706573,6.43272402 30.0926209,6.27632139 29.706955,6.27632139 C29.3212891,6.27632139 28.9432525,6.43272402 28.6708832,6.70509336 C28.3985138,6.97746279 28.2421112,7.35549922 28.2421112,7.74116514 C28.2421112,8.12683105 28.3985138,8.50372314 28.6708832,8.77647402 C28.944397,9.04998779 29.3212891,9.20600889 29.706955,9.20600889 Z" id="Path"></path>
                    <path d="M39.1212463,9.20600889 C39.5069122,9.20600889 39.8838043,9.04884336 40.1573182,8.77647402 C40.4296875,8.50372314 40.58609,8.12606816 40.58609,7.74116514 C40.58609,7.35549922 40.4296875,6.97746279 40.1573182,6.70509336 C39.8838043,6.43272402 39.5069122,6.27632139 39.1212463,6.27632139 C38.735199,6.27632139 38.3575439,6.43272402 38.0851746,6.70509336 C37.8124237,6.97746279 37.6564025,7.35549922 37.6564025,7.74116514 C37.6564025,8.12683105 37.8124237,8.50372314 38.0851746,8.77647402 C38.3583068,9.04884336 38.735199,9.20600889 39.1212463,9.20600889 Z" id="Path"></path>
                    <path d="M42.2592163,18.8282013 L7.74078369,18.8282013 C6.93206787,18.8282013 6.27593994,19.4839478 6.27593994,20.293045 L6.27593994,42.2592163 C6.27593994,43.0679321 6.93206787,43.7240601 7.74078369,43.7240601 L42.2592163,43.7240601 C43.0683136,43.7240601 43.7240601,43.0679321 43.7240601,42.2592163 L43.7240601,20.293045 C43.7240601,19.4839478 43.0683136,18.8282013 42.2592163,18.8282013 Z M40.7943726,40.7939911 L9.20562744,40.7939911 L9.20562744,21.7578888 L40.7943726,21.7578888 L40.7943726,40.7939911 Z" id="Shape"></path>
                    <path d="M14.0167236,28.0338287 L35.9832764,28.0338287 C36.7919922,28.0338287 37.4481201,27.3780822 37.4481201,26.568985 C37.4481201,25.7598877 36.7919922,25.1041412 35.9832764,25.1041412 L14.0167236,25.1041412 C13.2080078,25.1041412 12.5518799,25.7598877 12.5518799,26.568985 C12.5518799,27.3780822 13.2080078,28.0338287 14.0167236,28.0338287 Z" id="Path"></path>
                </g>
            </g>
        </g>
    </g>
</svg>

<svg xmlns="http://www.w3.org/2000/svg" width="50" height="50" viewBox="0 0 50 50"><g fill="#C6C4C4"><path d="M44.613 0H5.387A5.393 5.393 0 0 0 0 5.387v39.226A5.393 5.393 0 0 0 5.387 50h39.226A5.393 5.393 0 0 0 50 44.613V5.387A5.393 5.393 0 0 0 44.613 0zM5.387 2.93h39.226a2.46 2.46 0 0 1 2.457 2.457v7.165H2.93V5.387A2.46 2.46 0 0 1 5.387 2.93zm39.226 44.14H5.387a2.46 2.46 0 0 1-2.457-2.457V15.482h44.14v29.13a2.46 2.46 0 0 1-2.457 2.458z"/><path d="M10.879 9.206a1.47 1.47 0 0 0 1.465-1.465c0-.386-.156-.764-.429-1.036a1.478 1.478 0 0 0-1.036-.429 1.47 1.47 0 0 0-1.466 1.465 1.47 1.47 0 0 0 1.466 1.465zm9.414 0a1.47 1.47 0 0 0 1.465-1.465c0-.386-.157-.764-.429-1.036a1.478 1.478 0 0 0-1.036-.429 1.47 1.47 0 0 0-1.465 1.465 1.47 1.47 0 0 0 1.465 1.465zm9.414 0a1.47 1.47 0 0 0 1.465-1.465c0-.386-.157-.764-.429-1.036a1.476 1.476 0 0 0-1.036-.429c-.386 0-.764.157-1.036.43-.272.271-.429.65-.429 1.035a1.47 1.47 0 0 0 1.465 1.465zm9.414 0c.386 0 .763-.157 1.036-.43.273-.272.43-.65.43-1.035 0-.386-.157-.764-.43-1.036a1.478 1.478 0 0 0-1.036-.429 1.47 1.47 0 0 0-1.465 1.465 1.467 1.467 0 0 0 1.465 1.465zm3.139 9.622H7.74c-.808 0-1.464.656-1.464 1.465v21.966c0 .809.656 1.465 1.465 1.465h34.518c.81 0 1.465-.656 1.465-1.465V20.293c0-.81-.656-1.465-1.465-1.465zm-1.466 21.966H9.206V21.758h31.588v19.036z"/><path d="M14.017 28.034h21.966a1.465 1.465 0 0 0 0-2.93H14.017a1.465 1.465 0 0 0 0 2.93z"/></g></svg>
